X: 2783
T: Banshee's Wail, The
R: jig
M: 6/8
K: Gmajor
|:A|GED D2 D|GBd e2 g|dBA AGA|BGE E2 A|
GED D2 D|GBd e2 g|dBA AGA|AGF G2:|
|:A|Bdd edd|gdd edB|BAG GAB|AGE E2 A|
[1 Bdd edd|gdg edB|dBA AGA|AGF G2:|
[2 GED D2 D|GBd e2 g|dBA AGA|AGF G2||

